src/topics/icons/litmus.svg

<svg height="256" preserveAspectRatio="xMidYMid" viewBox="0 0 256 256" width="256" xmlns="http://www.w3.org/2000/svg"><path d="m0 127.94c0 12.487 1.799 24.552 5.133 35.961l70.62-23.131c-.892-3.852-1.367-7.864-1.367-11.988 0-4.773.649-9.391 1.832-13.79l-71.123-22.883c-3.311 11.37-5.095 23.391-5.095 35.831" fill="#6a7a55"/><path d="m93.597 87.948-44.651-60.671c-18.754 14.747-33.282 34.621-41.48 57.508l71.289 22.937c3.346-7.712 8.457-14.479 14.842-19.774" fill="#a09440"/><path d="m124.211 75.836v-75.836c-25.628.745-49.363 9.027-69.075 22.7l44.725 60.772c7.175-4.375 15.465-7.102 24.35-7.636" fill="#afa148"/><path d="m78.044 148.12-70.532 23.102c8.316 23.145 23.104 43.203 42.191 57.981l43.531-59.892c-6.684-5.643-11.941-12.913-15.19-21.191" fill="#4c5c59"/><path d="m55.934 233.725c19.554 13.346 42.993 21.419 68.277 22.155v-74.152c-9.052-.544-17.485-3.368-24.752-7.888z" fill="#48555d"/><path d="m200.148 22.212c-19.539-13.358-42.966-21.449-68.239-22.207v75.926c8.587.717 16.59 3.482 23.527 7.798z" fill="#e3b23b"/><path d="m131.909 181.633v74.242c25.471-.764 49.068-8.976 68.699-22.522l-44.245-60.119c-7.148 4.657-15.48 7.65-24.454 8.399" fill="#903024"/><path d="m162.495 168.577 44.317 60.217c19.033-14.892 33.734-35.058 41.928-58.294l-71.649-23.052c-3.09 8.2-8.138 15.44-14.596 21.129" fill="#d65841"/><path d="m256 127.94c0-12.642-1.84-24.852-5.254-36.386l-72.044 23.597c1.156 4.351 1.789 8.915 1.789 13.631 0 3.873-.422 7.647-1.21 11.283l71.796 23.1c3.198-11.192 4.923-23.006 4.923-35.225" fill="#e6703e"/><path d="m176.188 107.874 72.154-23.634c-8.332-22.937-23.032-42.818-41.967-57.501l-44.718 61.526c6.252 5.281 11.252 11.987 14.531 19.609" fill="#f4a83a"/></svg>

<?xml version="1.0" encoding="UTF-8" standalone="no"?>
<svg width="256px" height="256px" viewBox="0 0 256 256" version="1.1" xmlns="http://www.w3.org/2000/svg" xmlns:xlink="http://www.w3.org/1999/xlink" preserveAspectRatio="xMidYMid">
	<g>
		<path d="M0,127.94 C0,140.427 1.799,152.492 5.133,163.901 L75.753,140.77 C74.861,136.918 74.386,132.906 74.386,128.782 C74.386,124.009 75.035,119.391 76.218,114.992 L5.095,92.109 C1.784,103.479 0,115.5 0,127.94" fill="#6A7A55"></path>
		<path d="M93.597,87.948 L48.946,27.277 C30.192,42.024 15.664,61.898 7.466,84.785 L78.755,107.722 C82.101,100.01 87.212,93.243 93.597,87.948" fill="#A09440"></path>
		<path d="M124.211,75.836 L124.211,0 C98.583,0.745 74.848,9.027 55.136,22.7 L99.861,83.472 C107.036,79.097 115.326,76.37 124.211,75.836" fill="#AFA148"></path>
		<path d="M78.044,148.12 L7.512,171.222 C15.828,194.367 30.616,214.425 49.703,229.203 L93.234,169.311 C86.55,163.668 81.293,156.398 78.044,148.12" fill="#4C5C59"></path>
		<path d="M55.934,233.725 C75.488,247.071 98.927,255.144 124.211,255.88 L124.211,181.728 C115.159,181.184 106.726,178.36 99.459,173.84 L55.934,233.725" fill="#48555D"></path>
		<path d="M200.148,22.212 C180.609,8.854 157.182,0.763 131.909,0.005 L131.909,75.931 C140.496,76.648 148.499,79.413 155.436,83.729 L200.148,22.212" fill="#E3B23B"></path>
		<path d="M131.909,181.633 L131.909,255.875 C157.38,255.111 180.977,246.899 200.608,233.353 L156.363,173.234 C149.215,177.891 140.883,180.884 131.909,181.633" fill="#903024"></path>
		<path d="M162.495,168.577 L206.812,228.794 C225.845,213.902 240.546,193.736 248.74,170.5 L177.091,147.448 C174.001,155.648 168.953,162.888 162.495,168.577" fill="#D65841"></path>
		<path d="M256,127.94 C256,115.298 254.16,103.088 250.746,91.554 L178.702,115.151 C179.858,119.502 180.491,124.066 180.491,128.782 C180.491,132.655 180.069,136.429 179.281,140.065 L251.077,163.165 C254.275,151.973 256,140.159 256,127.94" fill="#E6703E"></path>
		<path d="M176.188,107.874 L248.342,84.24 C240.01,61.303 225.31,41.422 206.375,26.739 L161.657,88.265 C167.909,93.546 172.909,100.252 176.188,107.874" fill="#F4A83A"></path>
	</g>
</svg>
